X:150
T:Tempest. THO5.150, The
M:2/4
L:1/16
B:Thompson's Complete Collection of 200 Favourite Dances Vol.5
F:https://www.libraryofdance.org/manuals/1780c-Thompson-Compleat-5.pdf
Z:vmp. Peter Dunk 2024
Q:1/4=80
K:F
FGAB cAdB|cAdB cBAG|FGAB cAfa|gfed c2c2:|
|:cege cfaf|cgba gfed|cAdB cAdB|cBAG F2F2:|
W:
W:Right hands across quite round ./.
W:left hands back again ,.:
W:cross over  one Couple :/.
W:Right & Left :/:

